Ministry.BlogPage/wwwroot/dist/img/Geological_survey/down-arrow-icon.svg

<svg width="34" height="34" viewBox="0 0 34 34" fill="none" xmlns="http://www.w3.org/2000/svg">
<path d="M17 0C7.61118 0 0 7.61118 0 17C0 26.3888 7.61118 34 17 34C26.3844 33.9894 33.9894 26.3844 34 17C34 7.61118 26.3888 0 17 0ZM17 32.8667C8.23707 32.8667 1.13333 25.7629 1.13333 17C1.13333 8.23707 8.23707 1.13333 17 1.13333C25.7588 1.14332 32.8567 8.24125 32.8667 17C32.8667 25.7629 25.7629 32.8667 17 32.8667Z" fill="#EE7200"/>
<path d="M26.2161 12.0827L16.9998 21.2989L7.78355 12.0827C7.56397 11.8706 7.21583 11.8706 6.99624 12.0827C6.77113 12.3 6.7649 12.6588 6.98229 12.8839L16.5992 22.5008C16.7054 22.6071 16.8495 22.6669 16.9998 22.6669C17.1501 22.6669 17.2942 22.6071 17.4005 22.5008L27.0174 12.8839C27.0221 12.8794 27.0267 12.8747 27.0312 12.87C27.2486 12.6449 27.2425 12.2862 27.0174 12.0688C26.7922 11.8513 26.4335 11.8575 26.2161 12.0827Z" fill="#EE7200"/>
</svg>

<svg width="34" height="34" fill="none" xmlns="http://www.w3.org/2000/svg"><path d="M17 0C7.611 0 0 7.611 0 17s7.611 17 17 17c9.384-.01 16.99-7.616 17-17 0-9.389-7.611-17-17-17zm0 32.867C8.237 32.867 1.133 25.763 1.133 17 1.133 8.237 8.237 1.133 17 1.133c8.759.01 15.857 7.108 15.867 15.867 0 8.763-7.104 15.867-15.867 15.867z" fill="#EE7200"/><path d="M26.216 12.083L17 21.299l-9.216-9.216a.567.567 0 00-.802.8l9.617 9.618a.566.566 0 00.802 0l9.616-9.617a.567.567 0 10-.801-.801z" fill="#EE7200"/></svg>
